dist/images/svg/user_hover.svg

<svg width="26" height="28" viewBox="0 0 26 28" fill="none" xmlns="http://www.w3.org/2000/svg">
<path d="M24.98 22.8503C24.3278 21.2785 23.3813 19.8508 22.1933 18.6467C21.0089 17.4392 19.6059 16.4764 18.0617 15.8116C18.0478 15.8045 18.034 15.801 18.0202 15.794C20.1742 14.2111 21.5744 11.6327 21.5744 8.72362C21.5744 3.90452 17.7367 0 13 0C8.26333 0 4.42559 3.90452 4.42559 8.72362C4.42559 11.6327 5.82585 14.2111 7.97982 15.7975C7.96599 15.8045 7.95216 15.808 7.93833 15.8151C6.38941 16.4799 4.99952 17.4332 3.80671 18.6503C2.61981 19.8553 1.67349 21.2827 1.02003 22.8538C0.37806 24.3918 0.0318323 26.0409 8.64563e-05 27.7116C-0.000836348 27.7491 0.00563604 27.7864 0.0191224 27.8214C0.0326088 27.8564 0.0528363 27.8882 0.0786128 27.9151C0.104389 27.942 0.135194 27.9633 0.16921 27.9779C0.203227 27.9925 0.239768 28 0.27668 28H2.35113C2.50326 28 2.62427 27.8769 2.62773 27.7256C2.69688 25.01 3.76868 22.4668 5.66335 20.5392C7.62371 18.5447 10.2271 17.4472 13 17.4472C15.7729 17.4472 18.3763 18.5447 20.3367 20.5392C22.2313 22.4668 23.3031 25.01 23.3723 27.7256C23.3757 27.8804 23.4967 28 23.6489 28H25.7233C25.7602 28 25.7968 27.9925 25.8308 27.9779C25.8648 27.9633 25.8956 27.942 25.9214 27.9151C25.9472 27.8882 25.9674 27.8564 25.9809 27.8214C25.9944 27.7864 26.0008 27.7491 25.9999 27.7116C25.9653 26.0301 25.6231 24.3945 24.98 22.8503ZM13 14.7739C11.413 14.7739 9.91943 14.1442 8.79577 13.001C7.67211 11.8578 7.05323 10.3382 7.05323 8.72362C7.05323 7.10905 7.67211 5.58945 8.79577 4.44623C9.91943 3.30301 11.413 2.67337 13 2.67337C14.587 2.67337 16.0806 3.30301 17.2042 4.44623C18.3279 5.58945 18.9468 7.10905 18.9468 8.72362C18.9468 10.3382 18.3279 11.8578 17.2042 13.001C16.0806 14.1442 14.587 14.7739 13 14.7739Z" fill="#C998FB"/>
</svg>

<svg width="26" height="28" fill="none" xmlns="http://www.w3.org/2000/svg"><path d="M24.98 22.85a13.17 13.17 0 0 0-2.787-4.203 12.977 12.977 0 0 0-4.131-2.835l-.042-.018a8.752 8.752 0 0 0 3.554-7.07C21.574 3.904 17.737 0 13 0S4.426 3.905 4.426 8.724c0 2.909 1.4 5.487 3.554 7.073-.014.008-.028.011-.042.018a12.864 12.864 0 0 0-4.131 2.835 13.227 13.227 0 0 0-2.787 4.204A13.269 13.269 0 0 0 0 27.712a.286.286 0 0 0 .079.203.276.276 0 0 0 .198.085H2.35a.278.278 0 0 0 .277-.274 10.576 10.576 0 0 1 3.035-7.187c1.96-1.994 4.564-3.092 7.337-3.092 2.773 0 5.376 1.098 7.337 3.092a10.576 10.576 0 0 1 3.035 7.187.276.276 0 0 0 .277.274h2.074a.273.273 0 0 0 .198-.085.282.282 0 0 0 .079-.203 13.302 13.302 0 0 0-1.02-4.862ZM13 14.774c-1.587 0-3.08-.63-4.204-1.773a6.064 6.064 0 0 1-1.743-4.277c0-1.615.62-3.135 1.743-4.278A5.857 5.857 0 0 1 13 2.673c1.587 0 3.08.63 4.204 1.773a6.064 6.064 0 0 1 1.743 4.278A6.064 6.064 0 0 1 17.204 13 5.857 5.857 0 0 1 13 14.774Z" fill="#C998FB"/></svg>
